X:628
T:Dan the cobbler
R:Jig
O:Ireland
B:Kerr's First p37
S:Kerr's First p37
Z:Transcription,Slight arrangement, chords:Mike Long
M:6/8
L:1/8
K:D
D|\
"D"DFA "(G)"B2A|"D"def "G"g2g|"D"fdf "A"ecA|"G"BdB AFE|\
"D"DFA "(G)"B2A|"D"def "G"gfe|"D"fdf "A"ecA|"A/G"Adc "D"d2:|
|:e|\
"D"fad fad|faa agf|"C"eg=c eg=c|"(A)"egg gfe|\
"D"fef "G"gfg|"D"agf "A"efg|"D"fed "A"cBA|"A"Adc "D"d2:|
